X:1
T:Caledonia
C:Dougie MacLean
M:3/4
L:1/8
K:F
"Verse"[|\
"F"CF F3 F | "C7"CG G2 z G | "F"AB c2 BA | "Bb"BA F3 F |\
"F"CF F3 F | "C7"CG G2 z G | "F"A2 B2 cA | "Bb"B4 z2 |
| "F"CF F2 ED | "C7"CG G2 z F | "F"AB c2 BA | "Bb"BA GF- FC |\
"F"CF F2 C2 | "C7"CG G2 z G | "F"AB cB- BA | "Bb"B4 |]
"Chorus"[|\
AB | "F"cc cB BA | "C"AG-G2 FG | "F"AA AA GF | "Bb"D4 z2 |\
"Bb"FF F2 FD | "F"DC CA BA | "C"A4 G2 | "F"F4 z F |
"F"cc cc cA | "C"AG- G2 FG | "F"AA AA GF | "Bb"D4 z2 |\
"Bb"DF FF- FA | "C"AG GF A{G}F | "F"F4 z2 | "C"z6 |]
%%text With singers, final bars of phrases are often doubled.
